X: 5475
T: Bunclody
R: waltz
M: 3/4
K: Cmajor
GF|Gc3 B2|cd3 B2|cG3 F2|G4 GA|
_B4 AG|Bc3 d2|c4 GE|D4 BA|
G4 FG|EC3 DE|F4 GA|D4 cd|
e4 dc|BG3 F2|E4 CC|C4||

